gama.ui.shared/icons_svg/dark/status/status.compile.svg

<svg height="24.75" viewBox="-598.872 -3408.886 24.75 24.75" width="24.75" xmlns="http://www.w3.org/2000/svg"><path d="m-579.2088-3400.8876v10.3771c0 1.1045-.8954 1.9999-1.9999 1.9999h-8.79956c-1.10454 0-1.9999-.8954-1.9999-1.9999v-11.9995c0-1.1044.89536-1.9998 1.9999-1.9998h7.17726c.1062-.0067.2167.0288.3052.1172l3.19985 3.1998c.08845.0885.12385.199.11715.3052zm-3.9998-2.8224h-6.79966c-.66274 0-1.19994.5374-1.19994 1.2v11.9995c0 .6627.5372 1.2 1.19994 1.2h8.79956c.6627 0 1.19994-.5373 1.19994-1.2v-9.9995h-2.79984c-.2209 0-.4-.179-.4-.4zm.79996.566v1.834h1.83424zm-5.9997 5.033c-.2209 0-.39996-.179-.39996-.4 0-.2208.17906-.4.39996-.4h5.59974c.2209 0 .39996.1792.39996.4 0 .221-.17906.4-.39996.4zm0 2.4c-.2209 0-.39996-.179-.39996-.4s.17906-.4.39996-.4h5.59974c.2209 0 .39996.179.39996.4s-.17906.4-.39996.4zm0 2.4c-.2209 0-.39996-.1792-.39996-.4 0-.221.17906-.4.39996-.4h3.9998c.2209 0 .39998.179.39998.4 0 .2208-.17908.4-.39998.4z" fill="#c0e0ff"/></svg>

<?xml version="1.0" encoding="UTF-8" standalone="no"?>
<!DOCTYPE svg PUBLIC "-//W3C//DTD SVG 1.1//EN" "http://www.w3.org/Graphics/SVG/1.1/DTD/svg11.dtd">
<svg xmlns="http://www.w3.org/2000/svg" xmlns:xl="http://www.w3.org/1999/xlink" version="1.1" xmlns:dc="http://purl.org/dc/elements/1.1/" viewBox="-598.872 -3408.8856 24.75 24.75" width="24.75" height="24.75">
  <defs/>
  <g id="SOURCES" stroke-opacity="1" fill="none" stroke="none" fill-opacity="1" stroke-dasharray="none">
    <title>SOURCES</title>
    <g id="SOURCES_Dark">
      <title>Dark</title>
      <g id="Graphic_11747"/>
      <g id="Graphic_11748">
        <path d="M -579.2088 -3400.8876 L -579.2088 -3390.5105 C -579.2088 -3389.406 -580.1042 -3388.5106 -581.2087 -3388.5106 L -590.00826 -3388.5106 C -591.1128 -3388.5106 -592.00816 -3389.406 -592.00816 -3390.5105 L -592.00816 -3402.51 C -592.00816 -3403.6144 -591.1128 -3404.5098 -590.00826 -3404.5098 L -582.831 -3404.5098 C -582.7248 -3404.5165 -582.6143 -3404.481 -582.5258 -3404.3926 L -579.32595 -3401.1928 C -579.2375 -3401.1043 -579.2021 -3400.9938 -579.2088 -3400.8876 Z M -583.2086 -3403.71 L -590.00826 -3403.71 C -590.671 -3403.71 -591.2082 -3403.1726 -591.2082 -3402.51 L -591.2082 -3390.5105 C -591.2082 -3389.8478 -590.671 -3389.3105 -590.00826 -3389.3105 L -581.2087 -3389.3105 C -580.546 -3389.3105 -580.00876 -3389.8478 -580.00876 -3390.5105 L -580.00876 -3400.51 L -582.8086 -3400.51 C -583.0295 -3400.51 -583.2086 -3400.689 -583.2086 -3400.91 Z M -582.40864 -3403.144 L -582.40864 -3401.31 L -580.5744 -3401.31 Z M -588.40834 -3398.111 C -588.62924 -3398.111 -588.8083 -3398.29 -588.8083 -3398.511 C -588.8083 -3398.7318 -588.62924 -3398.911 -588.40834 -3398.911 L -582.8086 -3398.911 C -582.5877 -3398.911 -582.40864 -3398.7318 -582.40864 -3398.511 C -582.40864 -3398.29 -582.5877 -3398.111 -582.8086 -3398.111 Z M -588.40834 -3395.711 C -588.62924 -3395.711 -588.8083 -3395.89 -588.8083 -3396.111 C -588.8083 -3396.332 -588.62924 -3396.511 -588.40834 -3396.511 L -582.8086 -3396.511 C -582.5877 -3396.511 -582.40864 -3396.332 -582.40864 -3396.111 C -582.40864 -3395.89 -582.5877 -3395.711 -582.8086 -3395.711 Z M -588.40834 -3393.311 C -588.62924 -3393.311 -588.8083 -3393.4902 -588.8083 -3393.711 C -588.8083 -3393.932 -588.62924 -3394.111 -588.40834 -3394.111 L -584.40854 -3394.111 C -584.18764 -3394.111 -584.00856 -3393.932 -584.00856 -3393.711 C -584.00856 -3393.4902 -584.18764 -3393.311 -584.40854 -3393.311 Z" fill="#c0e0ff"/>
      </g>
    </g>
  </g>
</svg>
